icons/src/svg/image_set.svg

<svg width="32" height="32" viewBox="0 0 32 32" fill="none" xmlns="http://www.w3.org/2000/svg">
<path fill-rule="evenodd" clip-rule="evenodd" d="M6 8C6 6.89543 6.89543 6 8 6H28C29.1046 6 30 6.89543 30 8V16.999C30 16.9997 30 17.0003 30 17.001V20C30 21.1046 29.1046 22 28 22H26V24C26 25.1046 25.1046 26 24 26H4C2.89543 26 2 25.1046 2 24V12C2 10.8954 2.89543 10 4 10H6V8ZM6 12L4 12V24H24V22H8C6.89543 22 6 21.1046 6 20V12ZM28 14.5858V8L8 8V18.5857L13.2929 13.2925C13.4839 13.1015 13.744 12.9959 14.0141 12.9997C14.2842 13.0035 14.5413 13.1164 14.7268 13.3127L17.0101 15.7287L22.2829 10.3031C22.4694 10.1111 22.7252 10.0019 22.9929 10C23.2605 9.99811 23.5178 10.1036 23.7071 10.2929L28 14.5858ZM9.41416 20H28V17.4142L23.0102 12.4244L17.7171 17.8709C17.5272 18.0664 17.2656 18.1758 16.993 18.1739C16.7204 18.172 16.4604 18.0589 16.2732 17.8608L13.9798 15.4341L9.41416 20Z" fill="#0D0F13"/>
</svg>

<svg fill="none" xmlns="http://www.w3.org/2000/svg" viewBox="0 0 32 32">
  <path fill-rule="evenodd" clip-rule="evenodd" d="M2 12a2 2 0 0 1 2-2h3v2H4v12h20v-2.5h2V24a2 2 0 0 1-2 2H4a2 2 0 0 1-2-2V12Z" fill="currentColor"/>
  <path fill-rule="evenodd" clip-rule="evenodd" d="M6 8a2 2 0 0 1 2-2h20a2 2 0 0 1 2 2v12a2 2 0 0 1-2 2H8a2 2 0 0 1-2-2V8Zm22 6.586V8H8v10.586l5.293-5.293a1 1 0 0 1 1.434.02l2.283 2.416 5.273-5.426a1 1 0 0 1 1.424-.01L28 14.586ZM9.414 20H28v-2.586l-4.99-4.99-5.293 5.447a1 1 0 0 1-1.444-.01l-2.293-2.427L9.414 20Z" fill="currentColor"/>
</svg>
